X:3371
T:La Bigaille (F. Bordois)
O:england
M:3/4
L:1/4
K:C
d2e|fed|B2c|dcB|\
F2G|A2c|BGc|BAG|\
d2e|fed|B2c|dcB|FcB|
AGF|G>A G/F/|G2c:|\
|:BGc|BGc|BAG|F2B|\
AFB|AFB|AGF|1 G2c:|2 G3||


